X: 31630
T: Papa's Pet
R: reel
M: 4/4
K: Eminor
|:BEE2 FDD2|FDAD BDAD|BEE2 FDDE|FDAF FE E2|
BEEG FD D2|FAA2 BAFB|AFAB d3c|dBAF FEE2:|
|:Bee2 dBAF|E2DE FAA2|Beed e2de|fdd2 fdd2|
efde BdAF|E2DE FAA2|B3c d2fe|dBAF FEE2:|

